X:1
T:Keep Thou My Way
T:Keep Thou My Way
T:Theodore Edson Perkins
T:Frances Jane (Fanny) Crosby, 1894
T:Public Domain Courtesy of the Cyber Hymnal™
C:Theodore Edson Perkins
Z:Public Domain
Z:Courtesy of the Cyber Hymnal™
%%score ( 1 2 ) ( 3 4 )
L:1/8
Q:1/4=105
M:6/8
K:Bb
V:1 treble 
V:2 treble 
V:3 bass 
V:4 bass 
V:1
 [DB]3 (d>c)[FB] | [Gc]2 [GB] [EG]3 | (F>G)[FA] [FB]2 [Fd] | [Fc]6 | [DB]3 (d>c)[FB] | %5
w: 1.~Keep Thou * my|way, O Lord,|be * Thou ev- er|nigh;|Strong is * Thy|
w: 2.~Keep Thou * my|heart, O Lord,|ev- * er close to|Thee;|Safe in * Thine|
w: 3.~Keep Thou * my|all, O Lord,|hide * my life in|Thine;|O let * Thy|
 [Gc]2 [GB] [EG]3 | (F>G)[EA] [DB]2 [Ec] | [DB]6 | [Fc]3 (c>B)[Fc] | [Fd]2 [Ec] [DB]3 | %10
w: might- y arm,|weak * and frail am|I;|Then, my * un-|chang- ing friend,|
w: arms of love,|shall * my re- fuge|be;|Then, over * a|tran- quil tide,|
w: sac- red light|over * my path- way|shine;|Kept by * Thy|ten- der care,|
 [Fd]3 (d>c)[Fd] | [Fe]2 [Fd] c3 | [DB]3 (d>c)[FB] | [Gc]2 [GB] [EG]3 | (F>G)[EA] [DB]2 [Ec] | %15
w: on Thee, * my|hopes de- pend,|Till life’s * brief|day shall end,|be * Thou ev- er|
w: my bark * shall|safe- ly glide;|I shall * be|sa- tis- fied,|ev- * er close to|
w: glad- ly * the|cross I’ll bear;|Hear Thou * and|grant my prayer,|hide * my life in|
 [DB]6 |] %16
w: nigh.|
w: Thee.|
w: Thine.|
V:2
 x3 F2 x | x6 | E2 x4 | x6 | x3 F3 | x6 | E2 x4 | x6 | x3 F2 x | x6 | x3 F2 x | x3 (F2 E) | %12
 x3 F2 x | x6 | E2 x4 | x6 |] %16
V:3
 [B,,F,]3 ([B,,F,]>[C,A,])[D,B,] | [E,B,]2 [E,B,] [E,B,]3 | (A,>B,)[E,C] [D,B,]2 [B,,B,] | %3
 [F,A,]6 | [B,,B,]3 ([B,,F,]>[C,A,])[D,B,] | [E,B,]2 [E,B,] [E,B,]3 | (A,>B,)[F,C] [F,B,]2 [F,A,] | %7
 [B,,B,]6 | [F,A,]3 (A,>G,)[F,A,] | B,2 [F,A,] [B,,B,]3 | B,3 [F,A,]/B, x3/2 | [A,C]2 B, [F,A,]3 | %12
 [B,,B,]3 ([B,,F,][C,A,])[D,B,] | [E,B,]2 [E,B,] [E,B,]3 | (A,>B,)[F,C] [F,B,]2 [F,A,] | %15
 [B,,B,]6 |] %16
V:4
 x6 | x6 | F,2 x4 | x6 | x6 | x6 | F,2 x4 | x6 | x3 F,2 x | B,2 x4 | B,3 (B,3/2 B,) x/ | x2 B, x3 | %12
 x6 | x6 | F,2 x4 | x6 |] %16

